X:128
T:Reel 128
M:4/4
K:Dmaj
L:1/8
 (3DEF |G2F2 F>D (3FED |C>D (3EDE c2E>F|G>FG>F E>F (3GFE |F>F (3FEF G2FG|A>F (3FGF F>D (3FEF |G>F (3GFE F2F2|E>G (3EFG F2FA| (3Bcd c>A d2|A2| (3EFG A2 F2F2| (3EFE F>D  (3FGA A2|c>B (3GFE =c2 (3AFc |B>F (3GFG A2F2|E>G (3GFE F>D (3FED | (3FFG A>D  (3FGF E2| (3Bcd c2 B2AG|FGEF D2|
